icons/icn_seleccion.svg

<svg width="24" xmlns="http://www.w3.org/2000/svg" height="24" id="screenshot-0ef66420-1100-8022-8006-9da61559a1eb" viewBox="0 0 24 24" xmlns:xlink="http://www.w3.org/1999/xlink" fill="none" version="1.1"><g id="shape-0ef66420-1100-8022-8006-9da61559a1eb"><g class="frame-container-wrapper"><g class="frame-container-blur"><g class="frame-container-shadows"><g fill="none"><g class="fills" id="fills-0ef66420-1100-8022-8006-9da61559a1eb"><rect rx="0" ry="0" x="0" y="0" width="24" height="24.000000000000455" transform="matrix(1, 0, 0, 1, 0, 0)" class="frame-background"/></g><g class="frame-children"><g id="shape-0ef66420-1100-8022-8006-9da1b10ed78c" rx="0" ry="0"><g id="shape-0ef66420-1100-8022-8006-9da0ce82c902" style="opacity: 1;"><g class="fills" id="fills-0ef66420-1100-8022-8006-9da0ce82c902"><path d="M8.861620903015137,3.138916015625C7.286425590515137,3.138916015625,5.997363090515137,4.420166015625,5.997363090515137,5.9957275390625L5.997363090515137,8.0848388671875C5.998339653015137,8.443359375,6.289111137390137,8.7340087890625,6.647021293640137,8.7344970703125C7.005908012390137,8.7340087890625,7.296679496765137,8.443359375,7.296679496765137,8.0848388671875L7.296679496765137,5.9957275390625C7.296679496765137,5.1182861328125,7.985156059265137,4.438232421875,8.861620903015137,4.438232421875L18.155567169189453,4.438232421875C19.033008575439453,4.438232421875,19.720508575439453,5.1182861328125,19.720508575439453,5.9957275390625L19.720508575439453,15.2822265625C19.720508575439453,16.15966796875,19.033008575439453,16.8397216796875,18.155567169189453,16.8397216796875L16.058887481689453,16.8397216796875C15.700976371765137,16.8397216796875,15.410204887390137,17.13037109375,15.409472465515137,17.4893798828125C15.410204887390137,17.847900390625,15.700976371765137,18.1385498046875,16.058887481689453,18.138916015625L18.155567169189453,18.138916015625C19.730518341064453,18.138916015625,21.019580841064453,16.8572998046875,21.019580841064453,15.2822265625L21.019580841064453,5.9957275390625C21.019580841064453,4.420166015625,19.730518341064453,3.138916015625,18.155567169189453,3.138916015625Z" style="display: inline; stroke-linecap: round; stroke-linejoin: round; fill: rgb(0, 0, 0); fill-opacity: 1;"/></g></g><g id="shape-0ef66420-1100-8022-8006-9da0ce82c903" style="opacity: 1;"><g class="fills" id="fills-0ef66420-1100-8022-8006-9da0ce82c903"><path d="M17.419483184814453,5.9989013671875C17.159229278564453,5.8572998046875,16.763965606689453,6.0830078125,16.470508575439453,6.195556640625L15.706591606140137,6.489013671875L4.276659965515137,10.848876953125C3.999804735183716,10.9453125,3.754199266433716,11.166748046875,3.642627000808716,11.4638671875C3.441455125808716,11.9971923828125,3.720263719558716,12.607666015625,4.249804496765137,12.808349609375L7.299365043640137,13.945556640625L3.402636766433716,17.888427734375C3.002246141433716,18.2916259765625,3.007861375808716,18.9578857421875,3.410937547683716,19.35693359375L4.743456840515137,20.6834716796875C5.145800590515137,21.0811767578125,5.817431449890137,21.08251953125,6.219042778015137,20.6788330078125L10.111865043640137,16.742431640625L11.255175590515137,19.747802734375C11.352099418640137,20.022216796875,11.570849418640137,20.257568359375,11.866991996765137,20.37158203125C12.398486137390137,20.5745849609375,13.015917778015137,20.3023681640625,13.217822074890137,19.76806640625L17.814990997314453,7.5455322265625C17.901660919189453,7.3179931640625,18.017383575439453,6.7489013671875,17.919483184814453,6.4989013671875M16.395801544189453,7.6160888671875L12.236132621765137,18.676513671875L11.304980278015137,16.21923828125C10.988574028015137,15.385986328125,9.857226371765137,15.152099609375,9.230761528015137,15.7860107421875L5.478075981140137,19.5811767578125L4.508105278015137,18.616455078125L8.562792778015137,14.5172119140625C9.050829887390137,14.0240478515625,8.849658012390137,13.138671875,8.199023246765137,12.89599609375L5.353320121765137,11.83349609375L16.395801544189453,7.6160888671875" style="display: inline; fill-rule: evenodd; fill: rgb(0, 0, 0); fill-opacity: 1;"/></g></g></g></g></g></g></g></g></g></svg>

<svg fill="none" viewBox="0 0 24 24"><g class="frame-container-wrapper"><g class="frame-container-blur"><g class="frame-container-shadows"><g class="fills"><rect width="24" height="24" class="frame-background" rx="0" ry="0"/></g><g class="frame-children"><path fill="#000" d="M8.8616 3.139c-1.5752 0-2.8642 1.2812-2.8642 2.8567v2.0891c.001.3586.2917.6492.6496.6497a.65.65 0 0 0 .6497-.6497v-2.089c0-.8775.6885-1.5576 1.565-1.5576h9.2939c.8774 0 1.565.68 1.565 1.5575v9.2865c0 .8775-.6876 1.5575-1.565 1.5575h-2.0967c-.358 0-.6487.2907-.6494.6497.0007.3585.2915.6491.6494.6495h2.0967c1.575 0 2.864-1.2816 2.864-2.8567V5.9957c0-1.5755-1.289-2.8568-2.864-2.8568Z" class="fills"/><path fill="#000" fill-rule="evenodd" d="M17.4195 5.9989c-.2603-.1416-.6555.0841-.949.1967l-.764.2934L4.2768 10.849c-.2769.0964-.5225.3178-.634.615-.2012.5333.0776 1.1438.6071 1.3444l3.0496 1.1373-3.8968 3.9428c-.4004.4032-.3947 1.0695.0083 1.4685l1.3326 1.3266c.4023.3977 1.074.399 1.4755-.0047l3.8929-3.9364 1.1433 3.0054c.0969.2744.3156.5098.6118.6238.5315.203 1.149-.0692 1.3508-.6035L17.815 7.5455c.0867-.2275.2024-.7966.1045-1.0466m-1.5237 1.1172-4.1597 11.0604-.9311-2.4573c-.3164-.8332-1.4478-1.0671-2.0742-.4332L5.478 19.5812l-.97-.9647 4.0547-4.0993c.488-.4932.2869-1.3785-.3638-1.6212l-2.8457-1.0625 11.0425-4.2174" class="fills"/></g></g></g></g></svg>
